X:1
T:Title
%%score { 1 | 2 }
L:1/8
M:6/8
K:F
V:1 treble nm="Grand Piano"
V:2 bass 
V:1
 z3 z2[Q:1/4=100] c | A2 G F2 C | D2 [DF] [DB]2 [Fd] | c2 A c2 A |[M:5/8] [EG]-[EG]- [EG]3 | %5
[M:1/8] [Ec] |[M:3/4] [FA]2 [EG] F2 C | D2 [DF] [DB]2 [Fd] | [Fc]2 [FA] [EA]2 G |[M:5/8] F-F- F3 | %10
[M:1/8] c |[M:3/4] c2 A c2 [Fd] | [Fd]2 [FB] [Fd]2 [Fd] | c2 A c2 A |[M:5/8] [EG]-[EG]- [EG]3 | %15
[M:1/8] [Ec] |[M:3/4] [FA]2 [EG] F2 C |[M:7/8] D2 [DF] [DB]3 [Fd] |[M:3/4] [Fc]2 [FA] [EA]2 G | %19
[M:5/8] F-F- F3 |] %20
V:2
 z3 z2 [F,A,F] | [F,CF]2 [F,B,C] [F,A,C]2 [F,A,] | [B,,B,]2 [B,,B,] [B,,B,]2 [B,,B,] | %3
 [F,A,F]2 [F,CF] [A,CF]2[K:bass] [F,CF] |[M:5/8] [C,C]-[C,C]- [C,C]3 |[M:1/8] [C,C] | %6
[M:3/4] [F,C]2 [C,B,] [D,A,D]2 [A,,F,] | [B,,F,B,]2 [B,,F,] [B,,F,]2 [B,,B,] | %8
 [C,A,]2 [C,C] [C,C]2 [C,B,C] |[M:5/8] [F,A,C]-[F,A,C]- [F,A,C]3 |[M:1/8] [F,A,F] | %11
[M:3/4] [F,A,F]2 [F,CF] [F,A,F]2 [B,,B,] | [B,,B,]2 [B,,F,] [B,,B,]2 [B,,B,] | %13
 [F,A,F]2 [F,CF] [A,CF]2[K:bass] [F,CF] |[M:5/8] [C,C]-[C,C]- [C,C]3 |[M:1/8] [C,C] | %16
[M:3/4] [F,C]2 [C,B,] [D,A,D]2 [A,,F,] |[M:7/8] [B,,F,B,]2 [B,,F,] [B,,F,]3 [B,,B,] | %18
[M:3/4] [C,A,]2 [C,C] [C,C]2 [C,B,C] |[M:5/8] [F,A,C]-[F,A,C]- [F,A,C]3 |] %20

